brandFactory_export/3.Masa/Indicativos y marcaciones_3Masa.svg

<?xml version="1.0" encoding="UTF-8"?>
<svg width="24px" height="24px" viewBox="0 0 24 24" version="1.1" xmlns="http://www.w3.org/2000/svg" xmlns:xlink="http://www.w3.org/1999/xlink">
    <title>3.Masa/Indicativos y marcaciones_3Masa</title>
    <g id="Symbols" stroke="none" stroke-width="1" fill="none" fill-rule="evenodd">
        <g id="3.Masa/Indicativos-y-marcaciones_3Masa" fill="#5CB615" fill-rule="nonzero">
            <path d="M11.9798319,3.94957983 C13.287395,3.94957983 14.1008403,4.76638655 14.1008403,6.07731092 L14.1008403,8.93445378 C14.3226891,8.87394958 14.5512605,8.84369748 14.7798319,8.84705882 C15.7747899,8.84705882 16.4705882,9.34117647 16.712605,10.1781513 C16.9613445,10.097479 17.2235294,10.0605042 17.4857143,10.0605042 C18.487395,10.0605042 19.1831933,10.5613445 19.4218487,11.405042 C19.6705882,11.3277311 19.9294118,11.287395 20.1915966,11.2907563 C21.4420168,11.2907563 22.2151261,12.0672269 22.2151261,13.3210084 L22.2151261,20.205042 C22.2151261,21.1630252 21.9462185,21.9226891 21.4117647,22.4705882 C20.8773109,23.0184874 20.0369748,23.3243697 19.0621849,23.3243697 L11.3243697,23.3243697 C10.5478992,23.3243697 10.205042,22.5915966 10.0605042,22.2823529 C9.92268908,21.9831933 9.42857143,20.9915966 8.8605042,19.8453782 C7.94621849,18.0033613 6.80672269,15.7109244 6.13109244,14.2857143 C5.73445378,13.4453782 5.89243697,12.5714286 6.53781513,12.0571429 C7.20672269,11.5226891 8.16470588,11.5361345 8.86386555,12.0907563 C9.22689076,12.3798319 9.52941176,12.7764706 9.86554622,13.3445378 L9.86554622,6.03361345 C9.94957983,4.7092437 10.7226891,3.94957983 11.9798319,3.94957983 Z M3.45882353,7.89579832 C4.33613445,7.89579832 4.90756303,8.35630252 4.90756303,9.3512605 C4.90756303,9.82857143 4.77647059,10.1848739 4.54117647,10.4235294 C4.28907563,10.6857143 3.91596639,10.810084 3.45882353,10.810084 C3.00168067,10.810084 2.62857143,10.6823529 2.37647059,10.4235294 C2.14117647,10.1848739 2.01008403,9.82857143 2.01008403,9.3512605 C2.01008403,8.35966387 2.5815126,7.89579832 3.45882353,7.89579832 Z M7.7210084,7.89579832 C8.60168067,7.89579832 9.1697479,8.35630252 9.1697479,9.3512605 C9.1697479,9.82857143 9.03865546,10.1848739 8.80336134,10.4235294 C8.5512605,10.6857143 8.17815126,10.810084 7.7210084,10.810084 C7.26386555,10.810084 6.8907563,10.6823529 6.63865546,10.4235294 C6.40336134,10.1848739 6.27226891,9.82857143 6.27226891,9.3512605 C6.27226891,8.35966387 6.84369748,7.89579832 7.7210084,7.89579832 Z M3.45882353,3.96302521 C4.33613445,3.96302521 4.90756303,4.42352941 4.90756303,5.41848739 C4.90756303,5.89579832 4.77647059,6.25210084 4.54117647,6.4907563 C4.28907563,6.74957983 3.91596639,6.87394958 3.45882353,6.87394958 C3.00168067,6.87394958 2.62857143,6.74957983 2.37647059,6.4907563 C2.14117647,6.25210084 2.01008403,5.89579832 2.01008403,5.41848739 C2.01008403,4.42689076 2.5815126,3.96302521 3.45882353,3.96302521 Z M7.7210084,3.96302521 C8.60168067,3.96302521 9.1697479,4.42352941 9.1697479,5.41848739 C9.1697479,5.89579832 9.03865546,6.25210084 8.80336134,6.4907563 C8.5512605,6.74957983 8.17815126,6.87394958 7.7210084,6.87394958 C7.26386555,6.87394958 6.8907563,6.74957983 6.63865546,6.4907563 C6.40336134,6.25210084 6.27226891,5.89579832 6.27226891,5.41848739 C6.27226891,4.42689076 6.84369748,3.96302521 7.7210084,3.96302521 Z M3.45882353,0.0302521008 C4.33613445,0.0302521008 4.90756303,0.490756303 4.90756303,1.48571429 C4.90756303,1.96302521 4.77647059,2.31932773 4.54117647,2.55798319 C4.28907563,2.81680672 3.91596639,2.94117647 3.45882353,2.94117647 C3.00168067,2.94117647 2.62857143,2.81680672 2.37647059,2.55798319 C2.14117647,2.31596639 2.01008403,1.96302521 2.01008403,1.48571429 C2.01008403,0.490756303 2.5815126,0.0302521008 3.45882353,0.0302521008 Z M7.7210084,0.0302521008 C8.60168067,0.0302521008 9.1697479,0.490756303 9.1697479,1.48571429 C9.1697479,1.96302521 9.03865546,2.31932773 8.80336134,2.55798319 C8.5512605,2.81680672 8.17815126,2.94117647 7.7210084,2.94117647 C7.26386555,2.94117647 6.8907563,2.81680672 6.63865546,2.55798319 C6.40336134,2.31596639 6.27226891,1.96302521 6.27226891,1.48571429 C6.27226891,0.490756303 6.84369748,0.0302521008 7.7210084,0.0302521008 Z M11.9798319,0.0302521008 C12.8571429,0.0302521008 13.4285714,0.490756303 13.4285714,1.48571429 C13.4285714,1.96302521 13.297479,2.31932773 13.0621849,2.55798319 C12.810084,2.81680672 12.4369748,2.94117647 11.9798319,2.94117647 C11.5226891,2.94117647 11.1495798,2.81680672 10.897479,2.55798319 C10.6621849,2.31596639 10.5310924,1.96302521 10.5310924,1.48571429 C10.5310924,0.490756303 11.102521,0.0302521008 11.9798319,0.0302521008 Z" id="Indicativos-y-marcaciones_3Masa"></path>
        </g>
    </g>
</svg>

<svg width="24" height="24" viewBox="0 0 24 24" xmlns="http://www.w3.org/2000/svg"><path d="M11.98 3.95c1.307 0 2.12.816 2.12 2.127v2.857c.223-.06.451-.09.68-.087.995 0 1.69.494 1.933 1.331.248-.08.51-.117.773-.117 1.001 0 1.697.5 1.936 1.344.249-.077.507-.118.77-.114 1.25 0 2.023.776 2.023 2.03v6.884c0 .958-.269 1.718-.803 2.266-.535.547-1.375.853-2.35.853h-7.738c-.776 0-1.119-.732-1.263-1.042-.138-.299-.632-1.29-1.2-2.437-.915-1.842-2.054-4.134-2.73-5.56-.397-.84-.239-1.714.407-2.228.669-.534 1.627-.52 2.326.034.363.289.665.685 1.002 1.254V6.034c.084-1.325.857-2.084 2.114-2.084zM3.459 7.896c.877 0 1.449.46 1.449 1.455 0 .478-.132.834-.367 1.073-.252.262-.625.386-1.082.386-.457 0-.83-.128-1.083-.386-.235-.24-.366-.595-.366-1.073 0-.991.572-1.455 1.449-1.455zm4.262 0c.88 0 1.449.46 1.449 1.455 0 .478-.131.834-.367 1.073-.252.262-.625.386-1.082.386-.457 0-.83-.128-1.082-.386-.236-.24-.367-.595-.367-1.073 0-.991.572-1.455 1.449-1.455zM3.459 3.963c.877 0 1.449.46 1.449 1.455 0 .478-.132.834-.367 1.073-.252.259-.625.383-1.082.383-.457 0-.83-.124-1.083-.383-.235-.239-.366-.595-.366-1.073 0-.991.572-1.455 1.449-1.455zm4.262 0c.88 0 1.449.46 1.449 1.455 0 .478-.131.834-.367 1.073-.252.259-.625.383-1.082.383-.457 0-.83-.124-1.082-.383-.236-.239-.367-.595-.367-1.073 0-.991.572-1.455 1.449-1.455zM3.459.03c.877 0 1.449.46 1.449 1.456 0 .477-.132.833-.367 1.072-.252.259-.625.383-1.082.383-.457 0-.83-.124-1.083-.383-.235-.242-.366-.595-.366-1.072C2.01.49 2.582.03 3.46.03zm4.262 0c.88 0 1.449.46 1.449 1.456 0 .477-.131.833-.367 1.072-.252.259-.625.383-1.082.383-.457 0-.83-.124-1.082-.383-.236-.242-.367-.595-.367-1.072C6.272.49 6.844.03 7.721.03zm4.259 0c.877 0 1.449.46 1.449 1.456 0 .477-.132.833-.367 1.072-.252.259-.625.383-1.082.383-.457 0-.83-.124-1.083-.383-.235-.242-.366-.595-.366-1.072 0-.995.572-1.456 1.449-1.456z" fill="#5CB615" fill-rule="nonzero"/></svg>
